svg/icon/bco.svg

<svg height="32" viewBox="0 0 32 32" width="32" xmlns="http://www.w3.org/2000/svg" xmlns:xlink="http://www.w3.org/1999/xlink"><defs><linearGradient id="a" x1="50%" x2="50%" y1="0%" y2="100%"><stop offset="0" stop-color="#fff" stop-opacity=".5"/><stop offset="1" stop-opacity=".5"/></linearGradient><circle id="b" cx="16" cy="15" r="15"/><filter id="c" height="111.7%" width="111.7%" x="-5.8%" y="-4.2%"><feOffset dy=".5" in="SourceAlpha" result="shadowOffsetOuter1"/><feGaussianBlur in="shadowOffsetOuter1" result="shadowBlurOuter1" stdDeviation=".5"/><feComposite in="shadowBlurOuter1" in2="SourceAlpha" operator="out" result="shadowBlurOuter1"/><feColorMatrix in="shadowBlurOuter1" values="0 0 0 0 0   0 0 0 0 0   0 0 0 0 0  0 0 0 0.199473505 0"/></filter><path id="d" d="m14.1224941 19.8257808-1.5066607-.847708c-.3792422.5148372-.9982412.8501145-1.6974661.8501145-.7004162 0-1.32033287-.3364208-1.69940241-.8527476l-.48891639.2761111c.04247108.101891.06586987.2133395.06586987.3301225 0 .4840743-.40203002.876494-.89795919.876494-.49592916 0-.89795918-.3924197-.89795918-.876494s.40203002-.876494.89795918-.876494c.28857568 0 .5453576.1328712.70963644.3393556l.48052339-.2713713c-.16508445-.2918364-.25903738-.627368-.25903738-.984319 0-1.0996144.89160825-1.9959605 2.00765247-2.0378145l.0000006-1.5543914c-1.08644976-.0418222-1.95408164-.9147517-1.95408164-1.9854833 0-.3408642.08792998-.6616822.24285735-.9420217l-.50971069-.2843008c-.16386081.2124535-.42441497.3498285-.71784054.3498285-.49592916 0-.89795918-.3924198-.89795918-.8764941 0-.48407425.40203002-.87649399.89795918-.87649399.49592917 0 .89795919.39241974.89795919.87649399 0 .1121156-.02156583.2193145-.06086926.3178602l.51958181.2898066c.36860064-.5092186.97638638-.8417305 1.66373638-.8417305.7014212 0 1.3199871.3462653 1.6860719.8732248l1.5327707-.8488916c-.1407752-.27227033-.220067-.58000037-.220067-.90580732 0-1.07170496.8579428-1.94781669 1.94-2.00965807v-.58806454c-.4380023-.05829402-.7755102-.42488101-.7755102-.86841285 0-.48407428.40203-.87649402.8979591-.87649402.4959292 0 .8979592.39241974.8979592.87649402 0 .44353184-.337508.81011883-.7755102.86841285v.58806454c1.0820572.06184138 1.94.93795311 1.94 2.00965807 0 .32681831-.0797849.63544731-.2213798.90834182l1.5308165.861299c.3627198-.5464968.9929723-.908087 1.709747-.908087.7083281 0 1.3321613.3531184 1.6968129.8888444l.5051645-.3214209c-.0381938-.0973278-.0591203-.2029982-.0591203-.3134395 0-.48407425.4020301-.87649399.8979592-.87649399.4959292 0 .8979592.39241974.8979592.87649399 0 .4840743-.40203.8764941-.8979592.8764941-.2949286 0-.5566481-.1387859-.7203509-.3530992l-.5004978.3184516c.1380337.2680391.2157467.5707717.2157467.8912213 0 1.0907706-.9004117 1.9762659-2.0153061 1.986954v1.6175249c1.1296599.0106891 2.0420408.907868 2.0420408 2.0130509 0 .3353375-.0839986.6515251-.2325784.9296094l.5141697.2903728c.1646505-.1974447.4156237-.3235678.696776-.3235678.4959292 0 .8979592.3924197.8979592.876494s-.40203.876494-.8979592.876494c-.4959291 0-.8979592-.3924197-.8979592-.876494 0-.1239077.026341-.2418103.0738552-.3486635l-.5128113-.2896056c-.3714263.530403-.9960159.8785082-1.703901.8785082-.70127 0-1.3207941-.3416296-1.6934221-.8636865l-1.5337162.8629305c.1667224.29526.2615873.6346047.2615873.9955767 0 1.0871204-.8604268 1.9780812-1.9528164 2.0594415v.3852896c.4179785.0749413.7346939.4323892.7346939.8620418 0 .4840743-.40203.876494-.8979592.876494-.4959291 0-.8979591-.3924197-.8979591-.876494 0-.4572146.358653-.8326636.8163265-.8729209v-.3698627c-1.1308475-.0418689-2.034449-.9499279-2.034449-2.0639893 0-.3590889.0938777-.6967756.2589839-.9909523zm.1299923-.2027739c.3833791-.5275207 1.0140557-.8717718 1.7271054-.8717718.7111022 0 1.3402805.3423731 1.7239585.8674533l1.5363827-.8644309c-.1539214-.2819031-.2411575-.6037538-.2411575-.9454926 0-1.0377878.804498-1.8921667 1.8379592-2.0013595v-1.6410631c-1.0186646-.1090722-1.8112245-.9517461-1.8112245-1.9751072 0-.3123685.0738429-.6079023.2054192-.8708772l-1.5337178-.8629314c-.3696467.5415466-1.0009448.8983504-1.7176198.8983504-.7177137 0-1.3498028-.3578388-1.7192253-.9007062l-1.5308966.8478536c.1435669.2722139.2246117.5809842.2246117.9082311 0 1.0437745-.8244942 1.8995814-1.8724489 1.9807542v1.5637272c1.0775745.0812993 1.9260204.9605395 1.9260204 2.0332078 0 .3580969-.0945572.6946367-.2606295.9871283zm-3.3341191-.7659352c.6044137 0 1.0943878-.4782615 1.0943878-1.0682271 0-.5899655-.4899741-1.0682271-1.0943878-1.0682271-.6044136 0-1.09438771.4782616-1.09438771 1.0682271 0 .5899656.48997411 1.0682271 1.09438771 1.0682271zm0-5.6050797c.5889159 0 1.0663266-.4659984 1.0663266-1.0408366s-.4774107-1.0408367-1.0663266-1.0408367c-.5889158 0-1.06632648.4659985-1.06632648 1.0408367s.47741068 1.0408366 1.06632648 1.0408366zm5.0612245-2.8547808c.596693 0 1.0804082-.47215234 1.0804082-1.05458172 0-.58242937-.4837152-1.05458167-1.0804082-1.05458167-.5966929 0-1.0804081.4721523-1.0804081 1.05458167 0 .58242938.4837152 1.05458172 1.0804081 1.05458172zm5.0816327 2.8348605c.5889159 0 1.0663265-.4659984 1.0663265-1.0408366 0-.5748383-.4774106-1.0408367-1.0663265-1.0408367s-1.0663265.4659984-1.0663265 1.0408367c0 .5748382.4774106 1.0408366 1.0663265 1.0408366zm0 5.6312749c.5966929 0 1.0804082-.4721523 1.0804082-1.0545817 0-.5824293-.4837153-1.0545816-1.0804082-1.0545816-.596693 0-1.0804082.4721523-1.0804082 1.0545816 0 .5824294.4837152 1.0545817 1.0804082 1.0545817zm-5.0816327 3.0352988c.612157 0 1.1084082-.4843886 1.1084082-1.0819123s-.4962512-1.0819124-1.1084082-1.0819124c-.6121569 0-1.1084081.4843887-1.1084081 1.0819124s.4962512 1.0819123 1.1084081 1.0819123zm0-3.9790637c-1.6519287 0-2.9910816-1.3071413-2.9910816-2.9195817s1.3391529-2.9195817 2.9910816-2.9195817c1.6519288 0 2.9910817 1.3071413 2.9910817 2.9195817s-1.3391529 2.9195817-2.9910817 2.9195817zm0-1.7754184c.6473792 0 1.1721837-.5122593 1.1721837-1.1441633s-.5248045-1.1441633-1.1721837-1.1441633c-.6473791 0-1.1721836.5122593-1.1721836 1.1441633s.5248045 1.1441633 1.1721836 1.1441633z"/><filter id="e" height="117.5%" width="119.4%" x="-9.7%" y="-6.2%"><feOffset dy=".5" in="SourceAlpha" result="shadowOffsetOuter1"/><feGaussianBlur in="shadowOffsetOuter1" result="shadowBlurOuter1" stdDeviation=".5"/><feColorMatrix in="shadowBlurOuter1" values="0 0 0 0 0   0 0 0 0 0   0 0 0 0 0  0 0 0 0.204257246 0"/></filter></defs><g fill="none" fill-rule="evenodd"><use fill="#000" filter="url(#c)" xlink:href="#b"/><use fill="#2c76b7" xlink:href="#b"/><use fill="url(#a)" xlink:href="#b"/><circle cx="16" cy="15" r="14.5" stroke="#000" stroke-opacity=".097"/><g fill-rule="nonzero"><use fill="#000" filter="url(#e)" xlink:href="#d"/><use fill="#fff" fill-rule="evenodd" xlink:href="#d"/></g></g></svg>

<svg xmlns="http://www.w3.org/2000/svg" xmlns:xlink="http://www.w3.org/1999/xlink" width="32" height="32" viewBox="0 0 32 32">
  <defs>
    <linearGradient id="bco-c" x1="50%" x2="50%" y1="0%" y2="100%">
      <stop offset="0%" stop-color="#FFF" stop-opacity=".5"/>
      <stop offset="100%" stop-opacity=".5"/>
    </linearGradient>
    <circle id="bco-b" cx="16" cy="15" r="15"/>
    <filter id="bco-a" width="111.7%" height="111.7%" x="-5.8%" y="-4.2%" filterUnits="objectBoundingBox">
      <feOffset dy=".5" in="SourceAlpha" result="shadowOffsetOuter1"/>
      <feGaussianBlur in="shadowOffsetOuter1" result="shadowBlurOuter1" stdDeviation=".5"/>
      <feComposite in="shadowBlurOuter1" in2="SourceAlpha" operator="out" result="shadowBlurOuter1"/>
      <feColorMatrix in="shadowBlurOuter1" values="0 0 0 0 0   0 0 0 0 0   0 0 0 0 0  0 0 0 0.199473505 0"/>
    </filter>
    <path id="bco-e" d="M14.1224941,19.8257808 L12.6158334,18.9780728 C12.2365912,19.49291 11.6175922,19.8281873 10.9183673,19.8281873 C10.2179511,19.8281873 9.59803443,19.4917665 9.21896489,18.9754397 L8.7300485,19.2515508 C8.77251958,19.3534418 8.79591837,19.4648903 8.79591837,19.5816733 C8.79591837,20.0657476 8.39388835,20.4581673 7.89795918,20.4581673 C7.40203002,20.4581673 7,20.0657476 7,19.5816733 C7,19.097599 7.40203002,18.7051793 7.89795918,18.7051793 C8.18653486,18.7051793 8.44331678,18.8380505 8.60759562,19.0445349 L9.08811901,18.7731636 C8.92303456,18.4813272 8.82908163,18.1457956 8.82908163,17.7888446 C8.82908163,16.6892302 9.72068988,15.7928841 10.8367341,15.7510301 L10.8367347,14.1966387 C9.75028494,14.1548165 8.88265306,13.281887 8.88265306,12.2111554 C8.88265306,11.8702912 8.97058304,11.5494732 9.12551041,11.2691337 L8.61579972,10.9848329 C8.45193891,11.1972864 8.19138475,11.3346614 7.89795918,11.3346614 C7.40203002,11.3346614 7,10.9422416 7,10.4581673 C7,9.97409305 7.40203002,9.58167331 7.89795918,9.58167331 C8.39388835,9.58167331 8.79591837,9.97409305 8.79591837,10.4581673 C8.79591837,10.5702829 8.77435254,10.6774818 8.73504911,10.7760275 L9.25463092,11.0658341 C9.62323156,10.5566155 10.2310173,10.2241036 10.9183673,10.2241036 C11.6197885,10.2241036 12.2383544,10.5703689 12.6044392,11.0973284 L14.1372099,10.2484368 C13.9964347,9.97616647 13.9171429,9.66843643 13.9171429,9.34262948 C13.9171429,8.27092452 14.7750857,7.39481279 15.8571429,7.33297141 L15.8571429,6.74490687 C15.4191406,6.68661285 15.0816327,6.32002586 15.0816327,5.87649402 C15.0816327,5.39241974 15.4836627,5 15.9795918,5 C16.475521,5 16.877551,5.39241974 16.877551,5.87649402 C16.877551,6.32002586 16.540043,6.68661285 16.1020408,6.74490687 L16.1020408,7.33297141 C17.184098,7.39481279 18.0420408,8.27092452 18.0420408,9.34262948 C18.0420408,9.66944779 17.9622559,9.97807679 17.820661,10.2509713 L19.3514775,11.1122703 C19.7141973,10.5657735 20.3444498,10.2041833 21.0612245,10.2041833 C21.7695526,10.2041833 22.3933858,10.5573017 22.7580374,11.0930277 L23.2632019,10.7716068 C23.2250081,10.674279 23.2040816,10.5686086 23.2040816,10.4581673 C23.2040816,9.97409305 23.6061117,9.58167331 24.1020408,9.58167331 C24.59797,9.58167331 25,9.97409305 25,10.4581673 C25,10.9422416 24.59797,11.3346614 24.1020408,11.3346614 C23.8071122,11.3346614 23.5453927,11.1958755 23.3816899,10.9815622 L22.8811921,11.3000138 C23.0192258,11.5680529 23.0969388,11.8707855 23.0969388,12.1912351 C23.0969388,13.2820057 22.1965271,14.167501 21.0816327,14.1781891 L21.0816327,15.795714 C22.2112926,15.8064031 23.1236735,16.703582 23.1236735,17.8087649 C23.1236735,18.1441024 23.0396749,18.46029 22.8910951,18.7383743 L23.4052648,19.0287471 C23.5699153,18.8313024 23.8208885,18.7051793 24.1020408,18.7051793 C24.59797,18.7051793 25,19.097599 25,19.5816733 C25,20.0657476 24.59797,20.4581673 24.1020408,20.4581673 C23.6061117,20.4581673 23.2040816,20.0657476 23.2040816,19.5816733 C23.2040816,19.4577656 23.2304226,19.339863 23.2779368,19.2330098 L22.7651255,18.9434042 C22.3936992,19.4738072 21.7691096,19.8219124 21.0612245,19.8219124 C20.3599545,19.8219124 19.7404304,19.4802828 19.3678024,18.9582259 L17.8340862,19.8211564 C18.0008086,20.1164164 18.0956735,20.4557611 18.0956735,20.8167331 C18.0956735,21.9038535 17.2352467,22.7948143 16.1428571,22.8761746 L16.1428571,23.2614642 C16.5608356,23.3364055 16.877551,23.6938534 16.877551,24.123506 C16.877551,24.6075803 16.475521,25 15.9795918,25 C15.4836627,25 15.0816327,24.6075803 15.0816327,24.123506 C15.0816327,23.6662914 15.4402857,23.2908424 15.8979592,23.2505851 L15.8979592,22.8807224 C14.7671117,22.8388535 13.8635102,21.9307945 13.8635102,20.8167331 C13.8635102,20.4576442 13.9573879,20.1199575 14.1224941,19.8257808 Z M14.2524864,19.6230069 C14.6358655,19.0954862 15.2665421,18.7512351 15.9795918,18.7512351 C16.690694,18.7512351 17.3198723,19.0936082 17.7035503,19.6186884 L19.239933,18.7542575 C19.0860116,18.4723544 18.9987755,18.1505037 18.9987755,17.8087649 C18.9987755,16.7709771 19.8032735,15.9165982 20.8367347,15.8074054 L20.8367347,14.1663423 C19.8180701,14.0572701 19.0255102,13.2145962 19.0255102,12.1912351 C19.0255102,11.8788666 19.0993531,11.5833328 19.2309294,11.3203579 L17.6972116,10.4574265 C17.3275649,10.9989731 16.6962668,11.3557769 15.9795918,11.3557769 C15.2618781,11.3557769 14.629789,10.9979381 14.2603665,10.4550707 L12.7294699,11.3029243 C12.8730368,11.5751382 12.9540816,11.8839085 12.9540816,12.2111554 C12.9540816,13.2549299 12.1295874,14.1107368 11.0816327,14.1919096 L11.0816327,15.7556368 C12.1592072,15.8369361 13.0076531,16.7161763 13.0076531,17.7888446 C13.0076531,18.1469415 12.9130959,18.4834813 12.7470236,18.7759729 L14.2524864,19.6230069 Z M10.9183673,18.8570717 C11.522781,18.8570717 12.0127551,18.3788102 12.0127551,17.7888446 C12.0127551,17.1988791 11.522781,16.7206175 10.9183673,16.7206175 C10.3139537,16.7206175 9.82397959,17.1988791 9.82397959,17.7888446 C9.82397959,18.3788102 10.3139537,18.8570717 10.9183673,18.8570717 Z M10.9183673,13.251992 C11.5072832,13.251992 11.9846939,12.7859936 11.9846939,12.2111554 C11.9846939,11.6363172 11.5072832,11.1703187 10.9183673,11.1703187 C10.3294515,11.1703187 9.85204082,11.6363172 9.85204082,12.2111554 C9.85204082,12.7859936 10.3294515,13.251992 10.9183673,13.251992 Z M15.9795918,10.3972112 C16.5762848,10.3972112 17.06,9.92505886 17.06,9.34262948 C17.06,8.76020011 16.5762848,8.28804781 15.9795918,8.28804781 C15.3828989,8.28804781 14.8991837,8.76020011 14.8991837,9.34262948 C14.8991837,9.92505886 15.3828989,10.3972112 15.9795918,10.3972112 Z M21.0612245,13.2320717 C21.6501404,13.2320717 22.127551,12.7660733 22.127551,12.1912351 C22.127551,11.6163968 21.6501404,11.1503984 21.0612245,11.1503984 C20.4723086,11.1503984 19.994898,11.6163968 19.994898,12.1912351 C19.994898,12.7660733 20.4723086,13.2320717 21.0612245,13.2320717 Z M21.0612245,18.8633466 C21.6579174,18.8633466 22.1416327,18.3911943 22.1416327,17.8087649 C22.1416327,17.2263356 21.6579174,16.7541833 21.0612245,16.7541833 C20.4645315,16.7541833 19.9808163,17.2263356 19.9808163,17.8087649 C19.9808163,18.3911943 20.4645315,18.8633466 21.0612245,18.8633466 Z M15.9795918,21.8986454 C16.5917488,21.8986454 17.088,21.4142568 17.088,20.8167331 C17.088,20.2192094 16.5917488,19.7348207 15.9795918,19.7348207 C15.3674349,19.7348207 14.8711837,20.2192094 14.8711837,20.8167331 C14.8711837,21.4142568 15.3674349,21.8986454 15.9795918,21.8986454 Z M15.9795918,17.9195817 C14.3276631,17.9195817 12.9885102,16.6124404 12.9885102,15 C12.9885102,13.3875596 14.3276631,12.0804183 15.9795918,12.0804183 C17.6315206,12.0804183 18.9706735,13.3875596 18.9706735,15 C18.9706735,16.6124404 17.6315206,17.9195817 15.9795918,17.9195817 Z M15.9795918,16.1441633 C16.626971,16.1441633 17.1517755,15.631904 17.1517755,15 C17.1517755,14.368096 16.626971,13.8558367 15.9795918,13.8558367 C15.3322127,13.8558367 14.8074082,14.368096 14.8074082,15 C14.8074082,15.631904 15.3322127,16.1441633 15.9795918,16.1441633 Z"/>
    <filter id="bco-d" width="119.4%" height="117.5%" x="-9.7%" y="-6.2%" filterUnits="objectBoundingBox">
      <feOffset dy=".5" in="SourceAlpha" result="shadowOffsetOuter1"/>
      <feGaussianBlur in="shadowOffsetOuter1" result="shadowBlurOuter1" stdDeviation=".5"/>
      <feColorMatrix in="shadowBlurOuter1" values="0 0 0 0 0   0 0 0 0 0   0 0 0 0 0  0 0 0 0.204257246 0"/>
    </filter>
  </defs>
  <g fill="none" fill-rule="evenodd">
    <use fill="#000" filter="url(#bco-a)" xlink:href="#bco-b"/>
    <use fill="#2C76B7" xlink:href="#bco-b"/>
    <use fill="url(#bco-c)" style="mix-blend-mode:soft-light" xlink:href="#bco-b"/>
    <circle cx="16" cy="15" r="14.5" stroke="#000" stroke-opacity=".097"/>
    <g fill-rule="nonzero">
      <use fill="#000" filter="url(#bco-d)" xlink:href="#bco-e"/>
      <use fill="#FFF" fill-rule="evenodd" xlink:href="#bco-e"/>
    </g>
  </g>
</svg>
